js/icons/debt.svg

<?xml version="1.0" encoding="UTF-8"?>
<svg width="24px" height="24px" viewBox="0 0 24 24" version="1.1" xmlns="http://www.w3.org/2000/svg" xmlns:xlink="http://www.w3.org/1999/xlink">
    <!-- Generator: Sketch 52.2 (67145) - http://www.bohemiancoding.com/sketch -->
    <title>Payment</title>
    <desc>Payment</desc>
    <g id="Payment" stroke="none" stroke-width="1" fill="none" fill-rule="evenodd">
        <g fill="#000000" fill-rule="nonzero">
            <path d="M1,15 L1,23 L19,23 L19,15 L1,15 Z M1,14 L19,14 C19.5522847,14 20,14.4477153 20,15 L20,23 C20,23.5522847 19.5522847,24 19,24 L1,24 C0.44771525,24 6.76353751e-17,23.5522847 0,23 L0,15 C-6.76353751e-17,14.4477153 0.44771525,14 1,14 Z" id="Rectangle-8-Copy-5"></path>
            <path d="M1,15 L1,17 L2,17 C2.55228475,17 3,16.5522847 3,16 L3,15 L1,15 Z M1,14 L4,14 L4,16 C4,17.1045695 3.1045695,18 2,18 L0,18 L0,15 C-6.76353751e-17,14.4477153 0.44771525,14 1,14 Z" id="Rectangle-8-Copy-6"></path>
            <path d="M17,15 L17,17 L18,17 C18.5522847,17 19,16.5522847 19,16 L19,15 L17,15 Z M17,14 L20,14 L20,16 C20,17.1045695 19.1045695,18 18,18 L16,18 L16,15 C16,14.4477153 16.4477153,14 17,14 Z" id="Rectangle-8-Copy-7" transform="translate(18.000000, 16.000000) rotate(-270.000000) translate(-18.000000, -16.000000) "></path>
            <path d="M1,21 L1,23 L2,23 C2.55228475,23 3,22.5522847 3,22 L3,21 L1,21 Z M1,20 L4,20 L4,22 C4,23.1045695 3.1045695,24 2,24 L0,24 L0,21 C-6.76353751e-17,20.4477153 0.44771525,20 1,20 Z" id="Rectangle-8-Copy-8" transform="translate(2.000000, 22.000000) rotate(-90.000000) translate(-2.000000, -22.000000) "></path>
            <path d="M17,21 L17,23 L18,23 C18.5522847,23 19,22.5522847 19,22 L19,21 L17,21 Z M17,20 L20,20 L20,22 C20,23.1045695 19.1045695,24 18,24 L16,24 L16,21 C16,20.4477153 16.4477153,20 17,20 Z" id="Rectangle-8-Copy-9" transform="translate(18.000000, 22.000000) rotate(-180.000000) translate(-18.000000, -22.000000) "></path>
            <path d="M10,21 C11.709139,21 13,20.0318542 13,19 C13,17.9681458 11.709139,17 10,17 C8.290861,17 7,17.9681458 7,19 C7,20.0318542 8.290861,21 10,21 Z M10,22 C7.790861,22 6,20.6568542 6,19 C6,17.3431458 7.790861,16 10,16 C12.209139,16 14,17.3431458 14,19 C14,20.6568542 12.209139,22 10,22 Z" id="Oval-4-Copy"></path>
            <path d="M3,13 L3,15 L2,15 L2,13 C2,12.4477153 2.44771525,12 3,12 L21,12 C21.5522847,12 22,12.4477153 22,13 L22,21 C22,21.5522847 21.5522847,22 21,22 L19,22 L19,21 L21,21 L21,13 L3,13 Z" id="Line-39"></path>
            <path d="M5,11 L5,13 L4,13 L4,11 C4,10.4477153 4.44771525,10 5,10 L23,10 C23.5522847,10 24,10.4477153 24,11 L24,19 C24,19.5522847 23.5522847,20 23,20 L21,20 L21,19 L23,19 L23,11 L5,11 Z" id="Line-39-Copy"></path>
            <path d="M11.5,0 L11.5,0 C11.7761424,-5.07265313e-17 12,0.223857625 12,0.5 L12,8.5 C12,8.77614237 11.7761424,9 11.5,9 L11.5,9 C11.2238576,9 11,8.77614237 11,8.5 L11,0.5 C11,0.223857625 11.2238576,5.07265313e-17 11.5,0 Z" id="Line-14-Copy"></path>
            <path d="M13.5,0 L13.5,0 C13.7761424,-5.07265313e-17 14,0.223857625 14,0.5 L14,8.5 C14,8.77614237 13.7761424,9 13.5,9 L13.5,9 C13.2238576,9 13,8.77614237 13,8.5 L13,0.5 C13,0.223857625 13.2238576,5.07265313e-17 13.5,0 Z" id="Line-Copy"></path>
            <path d="M15.75,2.75 L15.75,2.75 C15.6061016,2.89389842 15.3788206,2.91150903 15.2144732,2.79149469 L14.732233,2.43933983 C14.4509285,2.15803526 14.0693976,2 13.6715729,2 L11.2071068,2 C10.8869622,2 10.5799298,2.12717696 10.3535534,2.35355339 L10.2071068,2.5 C10.0744985,2.63260824 10,2.81246362 10,3 C10,3.18753638 10.0744985,3.36739176 10.2071068,3.5 L10.3535534,3.64644661 C10.5799298,3.87282304 10.8869622,4 11.2071068,4 L13.7928932,4 C14.3782543,4 14.9396406,4.2325338 15.3535534,4.64644661 L15.5,4.79289322 C15.8201446,5.11303784 16,5.54724713 16,6 C16,6.45275287 15.8201446,6.88696216 15.5,7.20710678 L15.3535534,7.35355339 C14.9396406,7.7674662 14.3782543,8 13.7928932,8 L11.3284271,8 C10.6653859,8 10.0295011,7.7366079 9.56066017,7.26776695 L9.20850531,6.78552677 C9.08849097,6.62117937 9.10610158,6.39389842 9.25,6.25 L9.25,6.25 C9.39389842,6.10610158 9.62117937,6.08849097 9.78552677,6.20850531 L10.267767,6.56066017 C10.5490715,6.84196474 10.9306024,7 11.3284271,7 L13.7928932,7 C14.1130378,7 14.4200702,6.87282304 14.6464466,6.64644661 L14.7928932,6.5 C14.9255015,6.36739176 15,6.18753638 15,6 C15,5.81246362 14.9255015,5.63260824 14.7928932,5.5 L14.6464466,5.35355339 C14.4200702,5.12717696 14.1130378,5 13.7928932,5 L11.2071068,5 C10.6217457,5 10.0603594,4.7674662 9.64644661,4.35355339 L9.5,4.20710678 C9.17985538,3.88696216 9,3.45275287 9,3 C9,2.54724713 9.17985538,2.11303784 9.5,1.79289322 L9.64644661,1.64644661 C10.0603594,1.2325338 10.6217457,1 11.2071068,1 L13.6715729,1 C14.3346141,1 14.9704989,1.2633921 15.4393398,1.73223305 L15.7914947,2.21447323 C15.911509,2.37882063 15.8938984,2.60610158 15.75,2.75 Z" id="Path-26-Copy"></path>
        </g>
    </g>
</svg>

<?xml version="1.0" encoding="UTF-8"?>
<svg width="24px" height="24px" viewBox="0 0 24 24" version="1.1" xmlns="http://www.w3.org/2000/svg" xmlns:xlink="http://www.w3.org/1999/xlink">
    <!-- Generator: Sketch 52.2 (67145) - http://www.bohemiancoding.com/sketch -->
    <title>Payment</title>
    <desc>Payment</desc>
    <g id="Payment" stroke="none" stroke-width="1" fill="none" fill-rule="evenodd">
        <g fill="#000000" fill-rule="nonzero">
            <path id="Rectangle-8-Copy-5" d="M1 15v8h18v-8H1zm0-1h18a1 1 0 0 1 1 1v8a1 1 0 0 1-1 1H1a1 1 0 0 1-1-1v-8a1 1 0 0 1 1-1z"/>
            <path id="Rectangle-8-Copy-6" d="M1 15v2h1a1 1 0 0 0 1-1v-1H1zm0-1h3v2a2 2 0 0 1-2 2H0v-3a1 1 0 0 1 1-1z"/>
            <path id="Rectangle-8-Copy-7" d="M19 15h-2v1a1 1 0 0 0 1 1h1v-2zm1 0v3h-2a2 2 0 0 1-2-2v-2h3a1 1 0 0 1 1 1z"/>
            <path id="Rectangle-8-Copy-8" d="M1 23h2v-1a1 1 0 0 0-1-1H1v2zm-1 0v-3h2a2 2 0 0 1 2 2v2H1a1 1 0 0 1-1-1z"/>
            <path id="Rectangle-8-Copy-9" d="M19 23v-2h-1a1 1 0 0 0-1 1v1h2zm0 1h-3v-2a2 2 0 0 1 2-2h2v3a1 1 0 0 1-1 1z"/>
            <path id="Oval-4-Copy" d="M10 21c1.71 0 3-.968 3-2s-1.29-2-3-2-3 .968-3 2 1.29 2 3 2zm0 1c-2.21 0-4-1.343-4-3s1.79-3 4-3 4 1.343 4 3-1.79 3-4 3z"/>
            <path id="Line-39" d="M3 13v2H2v-2a1 1 0 0 1 1-1h18a1 1 0 0 1 1 1v8a1 1 0 0 1-1 1h-2v-1h2v-8H3z"/>
            <path id="Line-39-Copy" d="M5 11v2H4v-2a1 1 0 0 1 1-1h18a1 1 0 0 1 1 1v8a1 1 0 0 1-1 1h-2v-1h2v-8H5z"/>
            <path id="Line-14-Copy" d="M11.5 0a.5.5 0 0 1 .5.5v8a.5.5 0 1 1-1 0v-8a.5.5 0 0 1 .5-.5z"/>
            <path id="Line-Copy" d="M13.5 0a.5.5 0 0 1 .5.5v8a.5.5 0 1 1-1 0v-8a.5.5 0 0 1 .5-.5z"/>
            <path id="Path-26-Copy" d="M15.75 2.75a.413.413 0 0 1-.536.041l-.482-.352A1.5 1.5 0 0 0 13.672 2h-2.465c-.32 0-.627.127-.853.354l-.147.146a.707.707 0 0 0 0 1l.147.146c.226.227.533.354.853.354h2.586c.585 0 1.147.233 1.56.646l.147.147a1.707 1.707 0 0 1 0 2.414l-.146.147A2.207 2.207 0 0 1 13.793 8h-2.465a2.5 2.5 0 0 1-1.767-.732l-.352-.482a.413.413 0 1 1 .577-.577l.482.352a1.5 1.5 0 0 0 1.06.439h2.465c.32 0 .627-.127.853-.354l.147-.146a.707.707 0 0 0 0-1l-.147-.146A1.207 1.207 0 0 0 13.793 5h-2.586a2.207 2.207 0 0 1-1.56-.646L9.5 4.207a1.707 1.707 0 0 1 0-2.414l.146-.147A2.207 2.207 0 0 1 11.207 1h2.465a2.5 2.5 0 0 1 1.767.732l.352.482a.413.413 0 0 1-.041.536z"/>
        </g>
    </g>
</svg>
